assets/icons/bowtie/uE634-editor-list-bullet.svg

<svg xmlns="http://www.w3.org/2000/svg" viewBox="0 0 448 448"><path d="M384 96h-224v-32h224v32zm-288-32h-32v32h32v-32zm288 96h-224v32h224v-32zm-288 0h-32v32h32v-32zm288 96h-224v32h224v-32zm-288 0h-32v32h32v-32zm288 96h-224v32h224v-32zm-288 0h-32v32h32v-32z"/></svg>

<svg xmlns="http://www.w3.org/2000/svg" viewBox="0 0 448 448"><path d="M384 96H160V64h224v32zM96 64H64v32h32V64zm288 96H160v32h224v-32zm-288 0H64v32h32v-32zm288 96H160v32h224v-32zm-288 0H64v32h32v-32zm288 96H160v32h224v-32zm-288 0H64v32h32v-32z"/></svg>
